X: 94
T:Missa Fortuna desperata / Sanctus
N: Derived from Jos0802d-Missa_Fortuna_desperata-Sanctus.krn
C: Josquin des Prez
%%abc-version 2.0
%%abcx-abcm2ps-target-version 5.9.1 (29 Sep 2008)
%%abc-creator hum2abc beta
%%abcx-conversion-date 2019/02/12 16:15:42
%%abc-edited-by Jesse Rodin
%%abc-edited-by Jesse Rodin; Victoria Chang 2011/04/13
%%abcx-initial-encoding-date 2011/04/13/
%%humdrum-veritas 3644396463
%%humdrum-veritas-data 1654529120
%%linebreak <none>
%%barnumbers 0
L: 1/4
M: 2/1
Q: 1/2=120
%%staves [1 2 3 4]
V: 1 clef=treble
V: 2 clef=treble-8
V: 3 clef=treble-8
V: 4 clef=bass
K: C
[V:1] z8 | 
[V:2] z8 | 
[V:3] F8 | 
[V:4] F,8 | 
[V:1] z8 | 
[V:2] z8 | 
[V:3] F4G4 | 
[V:4] D,4C,4 | 
[V:1] z4F4- | 
[V:2] z8 | 
[V:3] A8 | 
[V:4] F,8 | 
[V:1] F2EDE4 | 
[V:2] z8 | 
[V:3] G8 | 
[V:4] C,8 | 
[V:1] F8 | 
[V:2] c8 | 
[V:3] F8 | 
[V:4] z4C4- | 
[V:1] z8 | 
[V:2] A4G4 | 
[V:3] c4d4 | 
[V:4] C2B,A,B,4 | 
[V:1] z4c4- | 
[V:2] c8 | 
[V:3] e3defg2- | 
[V:4] C4C,3D, | 
[V:1] c2BAB4 | 
[V:2] G8 | 
[V:3] g2fed4 | 
[V:4] E,3F,G,4 | 
[V:1] c8 | 
[V:2] g6f2 | 
[V:3] c8- | 
[V:4] C,8- | 
[V:1] z8 | 
[V:2] e2d2c2B2 | 
[V:3] c8- | 
[V:4] C,8 | 
[V:1] z4F4- | 
[V:2] A8 | 
[V:3] c8 | 
[V:4] F,8 | 
[V:1] F2EDE4 | 
[V:2] B8 | 
[V:3] z4B4 | 
[V:4] G,8 | 
[V:1] F8 | 
[V:2] A8- | 
[V:3] c8 | 
[V:4] F,8 | 
[V:1] z8 | 
[V:2] A4d4- | 
[V:3] d6c2 | 
[V:4] D,8- | 
[V:1] F6ED | 
[V:2] d8 | 
[V:3] A2F2A2B2 | 
[V:4] D,8 | 
[V:1] E4F4 | 
[V:2] G4d4 | 
[V:3] c2G2_B4 | 
[V:4] C,4_B,,4 | 
[V:1] z4c4- | 
[V:2] c4A4 | 
[V:3] A2F2f4 | 
[V:4] F,8 | 
[V:1] c2BAB4- | 
[V:2] G8 | 
[V:3] e4d4 | 
[V:4] C,4G,4- | 
[V:1] B2c2B2c2- | 
[V:2] g6fg | 
[V:3] e8 | 
[V:4] G,2F,E,G,2C,2 | 
[V:1] c2BAB4 | 
[V:2] a4g4 | 
[V:3] d8 | 
[V:4] F,4G,4 | 
[V:1] c8- | 
[V:2] e8 | 
[V:3] c6d2 | 
[V:4] C,4C4- | 
[V:1] c8 | 
[V:2] c8 | 
[V:3] e4f4 | 
[V:4] C2B,2A,4 | 
[V:1] z8 | 
[V:2] d8 | 
[V:3] g8 | 
[V:4] G,8 | 
[V:1] z8 | 
[V:2] f4e4 | 
[V:3] c6d2 | 
[V:4] F,4C4- | 
[V:1] z4c4 | 
[V:2] c8 | 
[V:3] e4f4 | 
[V:4] C2B,2A,4 | 
[V:1] B4c4- | 
[V:2] z4c4 | 
[V:3] g4e4 | 
[V:4] G,4C,3D, | 
[V:1] c2BAB2c2- | 
[V:2] G8 | 
[V:3] g3fd2c2 | 
[V:4] E,3F,G,2C,2- | 
[V:1] c2BAB4 | 
[V:2] G4G4 | 
[V:3] e4d4 | 
[V:4] C,D,E,F,G,4 | 
[V:1] c4z2F2- | 
[V:2] A8 | 
[V:3] c4A4 | 
[V:4] z2C,2D,4 | 
[V:1] F2EDE4 | 
[V:2] d4c4 | 
[V:3] _B3AG4 | 
[V:4] _B,,4C,4 | 
[V:1] F4z2F2- | 
[V:2] _B8- | 
[V:3] F8- | 
[V:4] D,6_B,,2 | 
[V:1] F2EDE4 | 
[V:2] B4c4 | 
[V:3] F4G4 | 
[V:4] D,4C,4 | 
[V:1] F4z2c2- | 
[V:2] c8 | 
[V:3] A2F2c4 | 
[V:4] F,4A,4 | 
[V:1] c2BAB4 | 
[V:2] g8 | 
[V:3] d3cd2e2- | 
[V:4] G,8 | 
[V:1] c8 | 
[V:2] c6d2 | 
[V:3] ede2f4 | 
[V:4] A,4F,4 | 
[V:1] z8 | 
[V:2] e4c4 | 
[V:3] g8 | 
[V:4] C6B,2 | 
[V:1] z8 | 
[V:2] f4g2d2- | 
[V:3] c4d3e | 
[V:4] A,4G,3F, | 
[V:1] z8 | 
[V:2] d2e2c4 | 
[V:3] f2g4fe | 
[V:4] D,2C,2E,2F,2 | 
[V:1] z8 | 
[V:2] _B8 | 
[V:3] d2c2d4 | 
[V:4] G,8 | 
[V:1] c6BA | 
[V:2] c4A4 | 
[V:3] e4f4 | 
[V:4] C,4F,4 | 
[V:1] B4c4 | 
[V:2] e2d2c2B2 | 
[V:3] g4e3d | 
[V:4] E,4A,4- | 
[V:1] z2c4BA | 
[V:2] A8 | 
[V:3] e2f2c2d2 | 
[V:4] A,2G,F,/E,/F,4 | 
[V:1] B4c4 | 
[V:2] e8- | 
[V:3] G4A4 | 
[V:4] E,4A,,4 | 
[V:1] z4c4- | 
[V:2] e8 | 
[V:3] G2g4fe | 
[V:4] E,6D,C, | 
[V:1] c2BAB4 | 
[V:2] e2d2B4 | 
[V:3] g2f2d4 | 
[V:4] E,2F,2G,4 | 
[V:1] c4z2c2- | 
[V:2] A8 | 
[V:3] c4e4- | 
[V:4] z4A,4- | 
[V:1] c2BAB2c2- | 
[V:2] z4e4 | 
[V:3] e2f2g4 | 
[V:4] A,4E,4 | 
[V:1] c2BAB2c2 | 
[V:2] A4G4- | 
[V:3] c2f2d2g2- | 
[V:4] F,4G,2E,2 | 
[V:1] B2c4BA | 
[V:2] G4A4 | 
[V:3] gfedc2d2 | 
[V:4] G,2C,2F,4 | 
[V:1] B2c4B2 | 
[V:2] e8 | 
[V:3] G2A2G4 | 
[V:4] E,2A,,2E,4 | 
[V:1] c4z2F2- | 
[V:2] A8- | 
[V:3] c3Bc2d2 | 
[V:4] z2F,3E,D,2- | 
[V:1] F2EDE2F2- | 
[V:2] A8 | 
[V:3] A3Bc2F2 | 
[V:4] D,2C,B,,A,,2D,2 | 
[V:1] F2EDE4 | 
[V:2] c8 | 
[V:3] G4C4 | 
[V:4] C,4C3B, | 
[V:1] F4c4- | 
[V:2] F8 | 
[V:3] c6d2 | 
[V:4] A,G,F,4E,D, | 
[V:1] c2BAB4 | 
[V:2] G8 | 
[V:3] e2c2d4 | 
[V:4] C,4G,4 | 
[V:1] c4F4- | 
[V:2] c4A4 | 
[V:3] c6_BA | 
[V:4] z2C,2D,4 | 
[V:1] F2EDE4 | 
[V:2] d4c4 | 
[V:3] _B4G4 | 
[V:4] _B,,4C,4 | 
[V:1] F4z4 | 
[V:2] d6e2 | 
[V:3] F2f4e2 | 
[V:4] z2_B,,4C,2 | 
[V:1] z4c4- | 
[V:2] B4c4 | 
[V:3] d2g2e3f | 
[V:4] G,4C,3D, | 
[V:1] c2BAB4 | 
[V:2] G8 | 
[V:3] g2e2d4 | 
[V:4] E,3F,G,4 | 
[V:1] c4z2F2- | 
[V:2] c8- | 
[V:3] z2c3BA2- | 
[V:4] A,4F,4 | 
[V:1] F2EDE4- | 
[V:2] c8- | 
[V:3] A2GFG2A2 | 
[V:4] C,8- | 
[V:1] E2F2E2F2- | 
[V:2] c8- | 
[V:3] G2A2G2A2- | 
[V:4] C,8- | 
[V:1] F2EDE4 | 
[V:2] c8- | 
[V:3] AGAFG4 | 
[V:4] C,8 | 
[V:1] F8 ||  
[V:2] c8 ||  
[V:3] F8 ||  
[V:4] F,8 ||  
[V:1]  [K:C] [K:clef=treble][M:2/1]z8 | 
[V:2]  [K:C] [K:clef=treble-8][M:2/1]z8 | 
[V:3]  [K:C] [K:clef=treble-8][M:2/1]z8 | 
[V:4]  [K:C] [K:clef=bass][M:2/1]C,4C,2D,2 | 
[V:1] z8 | 
[V:2] z8 | 
[V:3] z8 | 
[V:4] E,2F,2G,2A,2- | 
[V:1] z8 | 
[V:2] z8 | 
[V:3] F4F2G2 | 
[V:4] A,2G,F,A,2B,2 | 
[V:1] z8 | 
[V:2] z8 | 
[V:3] A2B2c2d2- | 
[V:4] C4F,4 | 
[V:1] z8 | 
[V:2] z8 | 
[V:3] d2c_Bd2e2 | 
[V:4] _B,6A,2 | 
[V:1] z8 | 
[V:2] z8 | 
[V:3] f4_B4 | 
[V:4] F,4G,4 | 
[V:1] z8 | 
[V:2] z8 | 
[V:3] _e6d2 | 
[V:4] C,4G,4- | 
[V:1] z8 | 
[V:2] z8 | 
[V:3] _B4c4- | 
[V:4] G,2F,G,A,2F,2- | 
[V:1] C4C2D2 | 
[V:2] z8 | 
[V:3] c4F4 | 
[V:4] F,2E,D,F,3E, | 
[V:1] E2F2G2A2- | 
[V:2] z8 | 
[V:3] c8 | 
[V:4] C,8 | 
[V:1] A2GFA2B2 | 
[V:2] z8 | 
[V:3] d8 | 
[V:4] z8 | 
[V:1] c4F4 | 
[V:2] z8 | 
[V:3] c4d4 | 
[V:4] z8 | 
[V:1] _B6A2 | 
[V:2] z8 | 
[V:3] G2d4c2 | 
[V:4] z8 | 
[V:1] F4G4 | 
[V:2] z8 | 
[V:3] d2f4ed | 
[V:4] z8 | 
[V:1] C4z4 | 
[V:2] z8 | 
[V:3] e8- | 
[V:4] z2C,3D,E,F, | 
[V:1] z8 | 
[V:2] z8 | 
[V:3] e8 | 
[V:4] G,2A,4G,2 | 
[V:1] z8 | 
[V:2] z8 | 
[V:3] c4d4 | 
[V:4] A,2C4B,2 | 
[V:1] z2C3DEF | 
[V:2] z8 | 
[V:3] e4c3d | 
[V:4] C8 | 
[V:1] G2A4G2 | 
[V:2] z8 | 
[V:3] e2f4e2 | 
[V:4] z8 | 
[V:1] A2c4B2 | 
[V:2] z8 | 
[V:3] c4d4 | 
[V:4] z8 | 
[V:1] c4z4 | 
[V:2] z8 | 
[V:3] c8 | 
[V:4] z2C,3D,E,F, | 
[V:1] z2C3DEF | 
[V:2] z8 | 
[V:3] z8 | 
[V:4] G,2A,3B,C2- | 
[V:1] G2A4^G2 | 
[V:2] z8 | 
[V:3] z8 | 
[V:4] C2B,A,B,4 | 
[V:1] A4z4 | 
[V:2] z8 | 
[V:3] z2F3GAB | 
[V:4] A,8 | 
[V:1] z2F3GAB | 
[V:2] z8 | 
[V:3] c2d3ef2- | 
[V:4] z8 | 
[V:1] c2d4^c2 | 
[V:2] z8 | 
[V:3] f2ede4 | 
[V:4] z8 | 
[V:1] d2A2B2c2- | 
[V:2] z8 | 
[V:3] d6c2 | 
[V:4] z8 | 
[V:1] cFF4E2 | 
[V:2] z8 | 
[V:3] d6c2 | 
[V:4] z8 | 
[V:1] F4G4 | 
[V:2] z8 | 
[V:3] d2f4e2 | 
[V:4] z8 | 
[V:1] z8 | 
[V:2] z8 | 
[V:3] f6ed | 
[V:4] z4F,4- | 
[V:1] z8 | 
[V:2] z8 | 
[V:3] f2e2c4 | 
[V:4] F,2G,2A,4 | 
[V:1] F8 | 
[V:2] z8 | 
[V:3] z8 | 
[V:4] _B,6A,G, | 
[V:1] G4A4- | 
[V:2] z8 | 
[V:3] z4c4 | 
[V:4] _B,2A,2F,4 | 
[V:1] A2GF_B2A2 | 
[V:2] z8 | 
[V:3] d6c_B | 
[V:4] z8 | 
[V:1] F4z4 | 
[V:2] z8 | 
[V:3] d2c2A4 | 
[V:4] z4F,4 | 
[V:1] z8 | 
[V:2] z8 | 
[V:3] G3A_Bcd2- | 
[V:4] G,6F,E, | 
[V:1] z8 | 
[V:2] z8 | 
[V:3] d_Bc2d2f2 | 
[V:4] G,2F,2D,4 | 
[V:1] G3FG2A2 | 
[V:2] z8 | 
[V:3] e2c3Bc2 | 
[V:4] C,4z4 | 
[V:1] F2G4C2- | 
[V:2] z8 | 
[V:3] d2B2c4 | 
[V:4] z8 | 
[V:1] CB,C2D2B,2 | 
[V:2] z8 | 
[V:3] z8 | 
[V:4] F,3E,F,2G,2 | 
[V:1] C4z4 | 
[V:2] z8 | 
[V:3] z4c3B | 
[V:4] E,2F,2z2F,2- | 
[V:1] z8 | 
[V:2] z8 | 
[V:3] c2d2B2c2- | 
[V:4] F,E,F,2G,2E,2 | 
[V:1] c3Bc2d2 | 
[V:2] z8 | 
[V:3] c2f3ef2 | 
[V:4] F,4z4 | 
[V:1] B2c4F2- | 
[V:2] z8 | 
[V:3] g2e2f4 | 
[V:4] z8 | 
[V:1] FEF2G2E2 | 
[V:2] z8 | 
[V:3] _B3A_B2c2 | 
[V:4] z8 | 
[V:1] F2G2A2_B2- | 
[V:2] z8 | 
[V:3] A2_B2c2d2- | 
[V:4] z8 | 
[V:1] BAGFE4 | 
[V:2] z8 | 
[V:3] dc_BAG2A2- | 
[V:4] z4C,4 | 
[V:1] z8 | 
[V:2] z8 | 
[V:3] A2B2c2d2 | 
[V:4] D,4C,2F,2 | 
[V:1] z8 | 
[V:2] z8 | 
[V:3] B2c3BAG | 
[V:4] G,2A,3B,C2- | 
[V:1] c4d2c2- | 
[V:2] z8 | 
[V:3] F4z4 | 
[V:4] CB,A,G,_B,2A,2- | 
[V:1] c2_BAB4 | 
[V:2] z8 | 
[V:3] F4G4 | 
[V:4] A,G,F,4E,2 | 
[V:1] A4G4 | 
[V:2] z8 | 
[V:3] F2c2d2e2- | 
[V:4] F,2A,2B,2C2- | 
[V:1] z8 | 
[V:2] z8 | 
[V:3] efg3fed | 
[V:4] C2B,A,G,4 | 
[V:1] z4C4 | 
[V:2] z8 | 
[V:3] f2e3dc2- | 
[V:4] A,2G,2A,4 | 
[V:1] D4C2F2 | 
[V:2] z8 | 
[V:3] c2B2c2d2 | 
[V:4] G,4z4 | 
[V:1] G2A3Bc2- | 
[V:2] z8 | 
[V:3] e2f2z2F2- | 
[V:4] C,2F,3G,A,B, | 
[V:1] cBAGAG_B2- | 
[V:2] z8 | 
[V:3] FGABc2d2 | 
[V:4] C2F,4E,D, | 
[V:1] BAGFGFA2- | 
[V:2] z8 | 
[V:3] G3A_B2c2 | 
[V:4] E,6C,2 | 
[V:1] AGF4E2 | 
[V:2] z8 | 
[V:3] F4G4 | 
[V:4] D,4C,4 | 
[V:1] F8 ||  
[V:2] z8 ||  
[V:3] F8 ||  
[V:4] z4F,4 ||  
[V:1]  [K:C] [K:clef=treble][M:2/1]F4D2C2 | 
[V:2]  [K:C] [K:clef=treble-8][M:2/1]z8 | 
[V:3]  [K:C] [K:clef=treble-8][M:2/1]z8 | 
[V:4]  [K:C] [K:clef=bass][M:2/1]z4F,4 | 
[V:1] F3EC2D2 | 
[V:2] z8 | 
[V:3] z8 | 
[V:4] D,2C,2F,3E, | 
[V:1] E8 | 
[V:2] c4A2G2 | 
[V:3] z4c4 | 
[V:4] C,8- | 
[V:1] z2E3FGA | 
[V:2] c4G4 | 
[V:3] A2G2c3B | 
[V:4] C,8 | 
[V:1] B2E2B2c2- | 
[V:2] g3fedcB | 
[V:3] G2g3fe2- | 
[V:4] z8 | 
[V:1] cBA4^G2 | 
[V:2] A4B4 | 
[V:3] e2dcd3e | 
[V:4] z8 | 
[V:1] A4z4 | 
[V:2] A6d2- | 
[V:3] f4z4 | 
[V:4] D,3E,F,2G,2 | 
[V:1] z8 | 
[V:2] d4G2d2 | 
[V:3] z4z2d2 | 
[V:4] D,2G,3A,B,2 | 
[V:1] z2A2B2G2- | 
[V:2] c2A2G4 | 
[V:3] e2f2d2e2- | 
[V:4] C2F,2G,2C,2- | 
[V:1] GFE2D4 | 
[V:2] g3f/ g/a2g2 | 
[V:3] edc4B2 | 
[V:4] C,D,E,2F,2G,2 | 
[V:1] C4c4 | 
[V:2] e4c4 | 
[V:3] c4A4 | 
[V:4] A,8 | 
[V:1] B4A4- | 
[V:2] d4f2e2 | 
[V:3] B4c4 | 
[V:4] G,4F,4- | 
[V:1] A2GFE3F | 
[V:2] c4z2c2 | 
[V:3] A4c4 | 
[V:4] F,2E,2C,3D, | 
[V:1] GAG3FED | 
[V:2] G4G2G2 | 
[V:3] B4e4 | 
[V:4] E,F,E,3D,C,B,, | 
[V:1] C2F3GA2 | 
[V:2] A4d2c2 | 
[V:3] z8 | 
[V:4] A,,2D,3E,F,2 | 
[V:1] D4G4 | 
[V:2] _B6c2 | 
[V:3] z2d4e2 | 
[V:4] G,6C,2 | 
[V:1] A2G3FED | 
[V:2] c4g4 | 
[V:3] f2g2e2g2- | 
[V:4] F,2E,2C,4 | 
[V:1] E4z2c2- | 
[V:2] c3de2c2 | 
[V:3] gfedc4 | 
[V:4] z2C3B,A,G, | 
[V:1] c2B2G2A2 | 
[V:2] f2gd2ec2 | 
[V:3] z8 | 
[V:4] A,2G,3E,F,2 | 
[V:1] D2G4A2 | 
[V:2] B4c2A2 | 
[V:3] z2d2e2f2 | 
[V:4] G,4C,2F,2 | 
[V:1] B2c4BA | 
[V:2] edcBA4 | 
[V:3] g2e2f3e | 
[V:4] E,2A,4G,F, | 
[V:1] c2B2c2B2 | 
[V:2] e8 | 
[V:3] c2g2c2g2- | 
[V:4] A,2G,2A,2G,2 | 
[V:1] G4A4 | 
[V:2] edB2A4 | 
[V:3] gfe4d2 | 
[V:4] E,4F,4 | 
[V:1] z2G2A2B2- | 
[V:2] z2e2A2G2- | 
[V:3] e4d4 | 
[V:4] z2E,2F,2G,2 | 
[V:1] B2c3BG2 | 
[V:2] G2A2e4 | 
[V:3] e4z2e2 | 
[V:4] E,2A,3G,E,2 | 
[V:1] A2F2A4 | 
[V:2] A8 | 
[V:3] c2d3cd2 | 
[V:4] F,2D,2F,3E, | 
[V:1] G2E2F3G | 
[V:2] c4F4 | 
[V:3] e2c4B2 | 
[V:4] C,4D,4 | 
[V:1] E2G4A2 | 
[V:2] G4c2A2 | 
[V:3] c3de2f2 | 
[V:4] C,6F,2 | 
[V:1] B2c2A2B2- | 
[V:2] d2c2d3e | 
[V:3] z2e2f2g2- | 
[V:4] G,2A,2D,2G,2- | 
[V:1] BAA4^G2 | 
[V:2] B2c2G4 | 
[V:3] gfe4d2 | 
[V:4] G,2A,2B,4 | 
[V:1] A2A,3B,CD | 
[V:2] c8- | 
[V:3] f2e3dc2- | 
[V:4] A,2C3B,A,2- | 
[V:1] E2F2G2C2- | 
[V:2] c8- | 
[V:3] cBA2G2A2 | 
[V:4] A,G,F,2E,2F,2 | 
[V:1] CDEFG2A2- | 
[V:2] c8- | 
[V:3] G2gfedc2- | 
[V:4] C,8- | 
[V:1] AGF4E2 | 
[V:2] c8- | 
[V:3] c2A2G4 | 
[V:4] C,8 | 
[V:1] F8 ||  
[V:2] c8 ||  
[V:3] F8 ||  
[V:4] F,8 ||  
[V:1]  [K:C] [K:clef=treble][M:2/1]F4c4- | 
[V:2]  [K:C] [K:clef=treble-8][M:2/1]z8 | 
[V:3]  [K:C] [K:clef=treble-8][M:2/1]z8 | 
[V:4]  [K:C] [K:clef=bass][M:2/1]z8 | 
[V:1] c2_Bcd2c2- | 
[V:2] z8 | 
[V:3] z8 | 
[V:4] z8 | 
[V:1] c2_BAG4 | 
[V:2] z8 | 
[V:3] F4c4- | 
[V:4] z8 | 
[V:1] z8 | 
[V:2] z8 | 
[V:3] c2_Bcd2c2- | 
[V:4] C,4F,4- | 
[V:1] z8 | 
[V:2] z8 | 
[V:3] c2_BAG4 | 
[V:4] F,2G,A,_B,4 | 
[V:1] C4F4- | 
[V:2] z8 | 
[V:3] z8 | 
[V:4] A,3G,A,2_B,2- | 
[V:1] F2GA_B4 | 
[V:2] z8 | 
[V:3] z8 | 
[V:4] B,A,G,F,G,4 | 
[V:1] A4G2c2- | 
[V:2] z8 | 
[V:3] F4c4- | 
[V:4] z8 | 
[V:1] c2_B2A4 | 
[V:2] z8 | 
[V:3] c2def4 | 
[V:4] z8 | 
[V:1] G4z4 | 
[V:2] z8 | 
[V:3] e4c2f2- | 
[V:4] C,4F,4- | 
[V:1] z8 | 
[V:2] z8 | 
[V:3] f2e2d4 | 
[V:4] F,2G,A,_B,4 | 
[V:1] z4F4 | 
[V:2] z8 | 
[V:3] c4z4 | 
[V:4] A,3G,A,2_B,2- | 
[V:1] G4_B4 | 
[V:2] z8 | 
[V:3] z8 | 
[V:4] B,A,G,F,G,4 | 
[V:1] A4F4 | 
[V:2] z8 | 
[V:3] z2f3ed2 | 
[V:4] F,8 | 
[V:1] G3FGA_B2- | 
[V:2] z8 | 
[V:3] c2_B4AG | 
[V:4] z8 | 
[V:1] BAF2G2_B2 | 
[V:2] z8 | 
[V:3] F2A2G4 | 
[V:4] z8 | 
[V:1] A4z4 | 
[V:2] z8 | 
[V:3] F4c4 | 
[V:4] z2C3B,A,2 | 
[V:1] z8 | 
[V:2] z8 | 
[V:3] d4f4 | 
[V:4] G,2F,4E,D, | 
[V:1] z8 | 
[V:2] z8 | 
[V:3] e2c2d2f2 | 
[V:4] C,2E,2D,4 | 
[V:1] z2c3BA2 | 
[V:2] z8 | 
[V:3] e4c4- | 
[V:4] C,8 | 
[V:1] G2F4ED | 
[V:2] z8 | 
[V:3] c2d3cd2 | 
[V:4] z8 | 
[V:1] C2E2D4 | 
[V:2] z8 | 
[V:3] e2c4B2 | 
[V:4] z8 | 
[V:1] z4C4 | 
[V:2] z8 | 
[V:3] c8 | 
[V:4] C,4F,4- | 
[V:1] F6F2 | 
[V:2] z8 | 
[V:3] z8 | 
[V:4] F,2F,2F,4- | 
[V:1] F6ED | 
[V:2] z8 | 
[V:3] z8 | 
[V:4] F,2E,D,F,2G,2 | 
[V:1] F2G2A4- | 
[V:2] z8 | 
[V:3] z8 | 
[V:4] A,6G,F, | 
[V:1] A2GFA2B2 | 
[V:2] z8 | 
[V:3] z8 | 
[V:4] A,2B,2C4 | 
[V:1] c2C2D2E2- | 
[V:2] z8 | 
[V:3] A4G4 | 
[V:4] F,4z4 | 
[V:1] E2DCD2E2 | 
[V:2] z8 | 
[V:3] A4G4 | 
[V:4] z8 | 
[V:1] F4z4 | 
[V:2] z8 | 
[V:3] d4c4 | 
[V:4] z2D,2E,2F,2- | 
[V:1] z8 | 
[V:2] z8 | 
[V:3] d4c4 | 
[V:4] F,2E,D,E,2F,2 | 
[V:1] z8 | 
[V:2] z8 | 
[V:3] z2B2c2d2- | 
[V:4] G,4F,4 | 
[V:1] z8 | 
[V:2] z8 | 
[V:3] d2cBc2d2 | 
[V:4] G,4F,4 | 
[V:1] z2G2A2B2- | 
[V:2] z8 | 
[V:3] e4d4 | 
[V:4] C4z4 | 
[V:1] B2AGA2B2 | 
[V:2] z8 | 
[V:3] e4d4 | 
[V:4] z8 | 
[V:1] c4F4 | 
[V:2] z8 | 
[V:3] c2f3edc | 
[V:4] z8 | 
[V:1] G4A4 | 
[V:2] z8 | 
[V:3] _B2c2A2f2- | 
[V:4] z8 | 
[V:1] F4G4 | 
[V:2] z8 | 
[V:3] fedc_B2c2 | 
[V:4] z8 | 
[V:1] A8 | 
[V:2] z8 | 
[V:3] F4c4 | 
[V:4] z2C3B,A,G, | 
[V:1] z8 | 
[V:2] z8 | 
[V:3] d4e4 | 
[V:4] F,2G,2E,2C2- | 
[V:1] z8 | 
[V:2] z8 | 
[V:3] c4d4 | 
[V:4] CB,A,G,F,2G,2 | 
[V:1] z2c3BAG | 
[V:2] z8 | 
[V:3] e4z2c2 | 
[V:4] C,4z4 | 
[V:1] F2G2E2c2- | 
[V:2] z8 | 
[V:3] d2B2c3B | 
[V:4] z4C,3D, | 
[V:1] cBAGF2G2 | 
[V:2] z8 | 
[V:3] G2F2_B4 | 
[V:4] E,2F,2D,2E,2 | 
[V:1] C8 ||  
[V:2] z8 ||  
[V:3] A8 ||  
[V:4] F,8 ||  



